public/cloud-icons/azure/storage/archive-storage.svg

<svg xmlns="http://www.w3.org/2000/svg" xml:space="preserve" width="75.587" height="71.817" style="font-size:12px;overflow:visible;color-interpolation-filters:sRGB;fill-rule:evenodd;stroke-linecap:square;stroke-miterlimit:3" viewBox="0 0 56.69 53.863"><g transform="translate(-5.67 -5.381)"><title>Page-1</title><g transform="translate(5.67 -34.016)"><title>Archive Storage.21739</title><title>path2</title><path d="M49.89 93.26H6.8c-3.75 0-6.8-3.01-6.8-6.73V41.65h56.69v44.88c0 3.72-3.04 6.73-6.8 6.73" style="fill:#3e3e3e;stroke:none;stroke-width:.940678;stroke-linecap:butt"/><g transform="translate(4.535 -21.319)"><title>rect4</title><path d="M0 79.795h47.622V93.26H0z" style="fill:#fff;stroke:none;stroke-width:.940678;stroke-linecap:butt"/></g><g transform="translate(4.535 -21.319)"><title>rect6</title><path d="M0 79.795h47.622V93.26H0z" style="fill:#804998;fill-opacity:.85;stroke:none;stroke-width:.940678;stroke-linecap:butt"/></g><g transform="translate(4.535 -4.488)"><title>rect8</title><path d="M0 79.795h47.622V93.26H0z" style="fill:#fff;stroke:none;stroke-width:.940678;stroke-linecap:butt"/></g><g transform="translate(4.535 -4.488)"><title>rect10</title><path d="M0 79.795h47.622V93.26H0z" style="fill:#59b4d9;fill-opacity:.5;stroke:none;stroke-width:.940678;stroke-linecap:butt"/></g><g transform="translate(4.535 -38.15)"><title>rect12</title><path d="M0 79.795h47.622V93.26H0z" style="fill:#59b4d9;stroke:none;stroke-width:.940678;stroke-linecap:butt"/></g><g transform="translate(4.535 -32.54)"><title>rect14</title><path d="M0 91.016h47.622v2.244H0z" style="fill:#fff;fill-opacity:.25;stroke:none;stroke-width:.940678;stroke-linecap:butt"/></g><g transform="translate(4.535 -49.37)"><title>rect16</title><path d="M0 91.016h47.622v2.244H0z" style="fill:#fff;fill-opacity:.2;stroke:none;stroke-width:.940678;stroke-linecap:butt"/></g><g transform="translate(4.535 -15.709)"><title>rect18</title><path d="M0 91.016h47.622v2.244H0z" style="fill:#fff;fill-opacity:.4;stroke:none;stroke-width:.940678;stroke-linecap:butt"/></g><title>path20</title><path d="M6.8 93.26h3.06l35.59-51.61H0v44.88c0 3.72 3.05 6.73 6.8 6.73" style="fill:#fff;fill-opacity:.15;stroke:none;stroke-width:.940678;stroke-linecap:butt"/><g transform="translate(11.07 -28.276)"><title>path22</title><path d="M3.57 93.26c.51 0 .95-.38 1.01-.89L7.07 68.8c.06-.6-.41-1.12-1.02-1.12H1.08c-.61 0-1.08.52-1.01 1.12l2.49 23.57c.06.51.49.89 1.01.89" style="fill:#59b4d9;stroke:none;stroke-width:.940678;stroke-linecap:butt"/></g><g transform="translate(12.027 -29.173)"><title>polygon24</title><path d="M5.22 69.47 2.71 93.26h-.2L0 69.47Z" style="fill:#fff;fill-opacity:.6;stroke:none;stroke-width:.940678;stroke-linecap:butt"/></g><g transform="translate(12.027 -29.173)"><title>polygon26</title><path d="m2.61 69.47.1 23.79h-.2L0 69.47Z" style="fill:#fff;fill-opacity:.6;stroke:none;stroke-width:.940678;stroke-linecap:butt"/></g><g transform="translate(39.762 -23.563)"><title>path28</title><path d="M4.46 93.26c.64 0 1.19-.48 1.26-1.11l3.11-27.78c.09-.75-.5-1.41-1.26-1.41H1.35c-.76 0-1.35.66-1.26 1.41l3.1 27.78c.08.63.62 1.11 1.27 1.11" style="fill:#59b4d9;stroke:none;stroke-width:.940678;stroke-linecap:butt"/></g><g transform="translate(40.957 -24.685)"><title>polygon30</title><path d="M6.53 65.21 3.39 93.26h-.25L0 65.21Z" style="fill:#fff;fill-opacity:.6;stroke:none;stroke-width:.940678;stroke-linecap:butt"/></g><g transform="translate(33.438 -28.276)"><title>path32</title><path d="M3.57 93.26c.51 0 .95-.38 1.01-.89L7.06 68.8c.07-.6-.4-1.12-1.01-1.12H1.08c-.61 0-1.08.52-1.01 1.12l2.49 23.57c.05.51.49.89 1.01.89" style="fill:#59b4d9;stroke:none;stroke-width:.940678;stroke-linecap:butt"/></g><g transform="translate(34.647 -30.39)"><title>path34</title><path d="M0 70.91h4.72L2.36 93.26Z" style="fill:#fff;fill-opacity:.6;stroke:none;stroke-width:.940678;stroke-linecap:butt"/></g><g transform="translate(34.647 -30.39)"><title>path36</title><path d="M0 70.91h2.36v22.35Z" style="fill:#fff;fill-opacity:.6;stroke:none;stroke-width:.940678;stroke-linecap:butt"/></g><g transform="translate(40.957 -24.685)"><title>polygon38</title><path d="m3.26 65.21.13 28.05h-.25L0 65.21Z" style="fill:#fff;fill-opacity:.6;stroke:none;stroke-width:.940678;stroke-linecap:butt"/></g></g></g></svg>

<?xml version="1.0" encoding="UTF-8" standalone="no"?>
<!-- Generated by Microsoft Visio, SVG Export Archive Storage.svg Page-1 -->

<svg
   xmlns:dc="http://purl.org/dc/elements/1.1/"
   xmlns:cc="http://creativecommons.org/ns#"
   xmlns:rdf="http://www.w3.org/1999/02/22-rdf-syntax-ns#"
   xmlns:svg="http://www.w3.org/2000/svg"
   xmlns="http://www.w3.org/2000/svg"
   xmlns:sodipodi="http://sodipodi.sourceforge.net/DTD/sodipodi-0.dtd"
   xmlns:inkscape="http://www.inkscape.org/namespaces/inkscape"
   width="0.78736115in"
   height="0.74809724in"
   viewBox="0 0 56.690001 53.862794"
   xml:space="preserve"
   class="st11"
   version="1.1"
   id="svg106"
   sodipodi:docname="Archive Storage.svg"
   style="font-size:12px;overflow:visible;color-interpolation-filters:sRGB;fill:none;fill-rule:evenodd;stroke-linecap:square;stroke-miterlimit:3"
   inkscape:version="0.92.5 (2060ec1f9f, 2020-04-08)"><metadata
   id="metadata112"><rdf:RDF><cc:Work
       rdf:about=""><dc:format>image/svg+xml</dc:format><dc:type
         rdf:resource="http://purl.org/dc/dcmitype/StillImage" /></cc:Work></rdf:RDF></metadata><defs
   id="defs110" /><sodipodi:namedview
   pagecolor="#ffffff"
   bordercolor="#666666"
   borderopacity="1"
   objecttolerance="10"
   gridtolerance="10"
   guidetolerance="10"
   inkscape:pageopacity="0"
   inkscape:pageshadow="2"
   inkscape:window-width="640"
   inkscape:window-height="480"
   id="namedview108"
   showgrid="false"
   inkscape:zoom="1.8979166"
   inkscape:cx="37.795281"
   inkscape:cy="16.819201"
   inkscape:window-x="0"
   inkscape:window-y="0"
   inkscape:window-maximized="0"
   inkscape:current-layer="svg106" />
	<style
   type="text/css"
   id="style2">
	<![CDATA[
		.st1 {fill:#3e3e3e;stroke:none;stroke-linecap:butt;stroke-width:0.940678}
		.st2 {fill:#ffffff;stroke:none;stroke-linecap:butt;stroke-width:0.940678}
		.st3 {fill:#804998;fill-opacity:0.85;stroke:none;stroke-linecap:butt;stroke-width:0.940678}
		.st4 {fill:#59b4d9;fill-opacity:0.5;stroke:none;stroke-linecap:butt;stroke-width:0.940678}
		.st5 {fill:#59b4d9;stroke:none;stroke-linecap:butt;stroke-width:0.940678}
		.st6 {fill:#ffffff;fill-opacity:0.25;stroke:none;stroke-linecap:butt;stroke-width:0.940678}
		.st7 {fill:#ffffff;fill-opacity:0.2;stroke:none;stroke-linecap:butt;stroke-width:0.940678}
		.st8 {fill:#ffffff;fill-opacity:0.4;stroke:none;stroke-linecap:butt;stroke-width:0.940678}
		.st9 {fill:#ffffff;fill-opacity:0.15;stroke:none;stroke-linecap:butt;stroke-width:0.940678}
		.st10 {fill:#ffffff;fill-opacity:0.6;stroke:none;stroke-linecap:butt;stroke-width:0.940678}
		.st11 {fill:none;fill-rule:evenodd;font-size:12px;overflow:visible;stroke-linecap:square;stroke-miterlimit:3}
	]]>
	</style>

	<g
   id="g104"
   transform="translate(-5.66929,-5.3814767)">
		<title
   id="title4">Page-1</title>
		<g
   id="group21739-1"
   transform="translate(5.66929,-34.0157)">
			<title
   id="title6">Archive Storage.21739</title>
			<g
   id="shape21740-2">
				<title
   id="title8">path2</title>
				<path
   d="M 49.89,93.26 H 6.8 C 3.05,93.26 0,90.25 0,86.53 V 41.65 h 56.69 v 44.88 c 0,3.72 -3.04,6.73 -6.8,6.73 z"
   class="st1"
   id="path10"
   inkscape:connector-curvature="0"
   style="fill:#3e3e3e;stroke:none;stroke-width:0.940678;stroke-linecap:butt" />
			</g>
			<g
   id="shape21741-4"
   transform="translate(4.53544,-21.3189)">
				<title
   id="title13">rect4</title>
				<rect
   x="0"
   y="79.795303"
   width="47.622002"
   height="13.4646"
   class="st2"
   id="rect15"
   style="fill:#ffffff;stroke:none;stroke-width:0.940678;stroke-linecap:butt" />
			</g>
			<g
   id="shape21742-6"
   transform="translate(4.53544,-21.3189)">
				<title
   id="title18">rect6</title>
				<rect
   x="0"
   y="79.795303"
   width="47.622002"
   height="13.4646"
   class="st3"
   id="rect20"
   style="fill:#804998;fill-opacity:0.85;stroke:none;stroke-width:0.940678;stroke-linecap:butt" />
			</g>
			<g
   id="shape21743-8"
   transform="translate(4.53544,-4.48819)">
				<title
   id="title23">rect8</title>
				<rect
   x="0"
   y="79.795303"
   width="47.622002"
   height="13.4646"
   class="st2"
   id="rect25"
   style="fill:#ffffff;stroke:none;stroke-width:0.940678;stroke-linecap:butt" />
			</g>
			<g
   id="shape21744-10"
   transform="translate(4.53544,-4.48819)">
				<title
   id="title28">rect10</title>
				<rect
   x="0"
   y="79.795303"
   width="47.622002"
   height="13.4646"
   class="st4"
   id="rect30"
   style="fill:#59b4d9;fill-opacity:0.5;stroke:none;stroke-width:0.940678;stroke-linecap:butt" />
			</g>
			<g
   id="shape21745-12"
   transform="translate(4.53544,-38.1496)">
				<title
   id="title33">rect12</title>
				<rect
   x="0"
   y="79.795303"
   width="47.622002"
   height="13.4646"
   class="st5"
   id="rect35"
   style="fill:#59b4d9;stroke:none;stroke-width:0.940678;stroke-linecap:butt" />
			</g>
			<g
   id="shape21746-14"
   transform="translate(4.53544,-32.5394)">
				<title
   id="title38">rect14</title>
				<rect
   x="0"
   y="91.015701"
   width="47.622002"
   height="2.2440901"
   class="st6"
   id="rect40"
   style="fill:#ffffff;fill-opacity:0.25;stroke:none;stroke-width:0.940678;stroke-linecap:butt" />
			</g>
			<g
   id="shape21747-16"
   transform="translate(4.53544,-49.3701)">
				<title
   id="title43">rect16</title>
				<rect
   x="0"
   y="91.015701"
   width="47.622002"
   height="2.2440901"
   class="st7"
   id="rect45"
   style="fill:#ffffff;fill-opacity:0.2;stroke:none;stroke-width:0.940678;stroke-linecap:butt" />
			</g>
			<g
   id="shape21748-18"
   transform="translate(4.53544,-15.7087)">
				<title
   id="title48">rect18</title>
				<rect
   x="0"
   y="91.015701"
   width="47.622002"
   height="2.2440901"
   class="st8"
   id="rect50"
   style="fill:#ffffff;fill-opacity:0.4;stroke:none;stroke-width:0.940678;stroke-linecap:butt" />
			</g>
			<g
   id="shape21749-20">
				<title
   id="title53">path20</title>
				<path
   d="M 6.8,93.26 H 9.86 L 45.45,41.65 H 0 v 44.88 c 0,3.72 3.05,6.73 6.8,6.73 z"
   class="st9"
   id="path55"
   inkscape:connector-curvature="0"
   style="fill:#ffffff;fill-opacity:0.15;stroke:none;stroke-width:0.940678;stroke-linecap:butt" />
			</g>
			<g
   id="shape21750-22"
   transform="translate(11.0699,-28.2756)">
				<title
   id="title58">path22</title>
				<path
   d="m 3.57,93.26 c 0.51,0 0.95,-0.38 1.01,-0.89 L 7.07,68.8 C 7.13,68.2 6.66,67.68 6.05,67.68 H 1.08 C 0.47,67.68 0,68.2 0.07,68.8 l 2.49,23.57 c 0.06,0.51 0.49,0.89 1.01,0.89 z"
   class="st5"
   id="path60"
   inkscape:connector-curvature="0"
   style="fill:#59b4d9;stroke:none;stroke-width:0.940678;stroke-linecap:butt" />
			</g>
			<g
   id="shape21751-24"
   transform="translate(12.0268,-29.1732)">
				<title
   id="title63">polygon24</title>
				<path
   d="M 5.22,69.47 2.71,93.26 H 2.51 L 0,69.47 Z"
   class="st10"
   id="path65"
   inkscape:connector-curvature="0"
   style="fill:#ffffff;fill-opacity:0.6;stroke:none;stroke-width:0.940678;stroke-linecap:butt" />
			</g>
			<g
   id="shape21752-26"
   transform="translate(12.0268,-29.1732)">
				<title
   id="title68">polygon26</title>
				<path
   d="m 2.61,69.47 0.1,23.79 H 2.51 L 0,69.47 Z"
   class="st10"
   id="path70"
   inkscape:connector-curvature="0"
   style="fill:#ffffff;fill-opacity:0.6;stroke:none;stroke-width:0.940678;stroke-linecap:butt" />
			</g>
			<g
   id="shape21753-28"
   transform="translate(39.7621,-23.563)">
				<title
   id="title73">path28</title>
				<path
   d="m 4.46,93.26 c 0.64,0 1.19,-0.48 1.26,-1.11 L 8.83,64.37 C 8.92,63.62 8.33,62.96 7.57,62.96 H 1.35 c -0.76,0 -1.35,0.66 -1.26,1.41 l 3.1,27.78 c 0.08,0.63 0.62,1.11 1.27,1.11 z"
   class="st5"
   id="path75"
   inkscape:connector-curvature="0"
   style="fill:#59b4d9;stroke:none;stroke-width:0.940678;stroke-linecap:butt" />
			</g>
			<g
   id="shape21754-30"
   transform="translate(40.9572,-24.685)">
				<title
   id="title78">polygon30</title>
				<path
   d="M 6.53,65.21 3.39,93.26 H 3.14 L 0,65.21 Z"
   class="st10"
   id="path80"
   inkscape:connector-curvature="0"
   style="fill:#ffffff;fill-opacity:0.6;stroke:none;stroke-width:0.940678;stroke-linecap:butt" />
			</g>
			<g
   id="shape21755-32"
   transform="translate(33.4375,-28.2756)">
				<title
   id="title83">path32</title>
				<path
   d="m 3.57,93.26 c 0.51,0 0.95,-0.38 1.01,-0.89 L 7.06,68.8 C 7.13,68.2 6.66,67.68 6.05,67.68 H 1.08 C 0.47,67.68 0,68.2 0.07,68.8 l 2.49,23.57 c 0.05,0.51 0.49,0.89 1.01,0.89 z"
   class="st5"
   id="path85"
   inkscape:connector-curvature="0"
   style="fill:#59b4d9;stroke:none;stroke-width:0.940678;stroke-linecap:butt" />
			</g>
			<g
   id="shape21756-34"
   transform="translate(34.6473,-30.3906)">
				<title
   id="title88">path34</title>
				<path
   d="M 0,70.91 H 4.72 L 2.36,93.26 Z"
   class="st10"
   id="path90"
   inkscape:connector-curvature="0"
   style="fill:#ffffff;fill-opacity:0.6;stroke:none;stroke-width:0.940678;stroke-linecap:butt" />
			</g>
			<g
   id="shape21757-36"
   transform="translate(34.6473,-30.3906)">
				<title
   id="title93">path36</title>
				<path
   d="M 0,70.91 H 2.36 V 93.26 Z"
   class="st10"
   id="path95"
   inkscape:connector-curvature="0"
   style="fill:#ffffff;fill-opacity:0.6;stroke:none;stroke-width:0.940678;stroke-linecap:butt" />
			</g>
			<g
   id="shape21758-38"
   transform="translate(40.9572,-24.685)">
				<title
   id="title98">polygon38</title>
				<path
   d="M 3.26,65.21 3.39,93.26 H 3.14 L 0,65.21 Z"
   class="st10"
   id="path100"
   inkscape:connector-curvature="0"
   style="fill:#ffffff;fill-opacity:0.6;stroke:none;stroke-width:0.940678;stroke-linecap:butt" />
			</g>
		</g>
	</g>
</svg>
